urcenter/urcenter/img/icons/vk.svg

<svg width="18" height="12" viewBox="0 0 18 12" fill="none" xmlns="http://www.w3.org/2000/svg">
<path d="M9.10875 11.625C11.7128 11.625 10.7843 9.9765 10.9853 9.5025C10.9823 9.1485 10.9793 8.808 10.9913 8.601C11.1563 8.6475 11.5455 8.84475 12.3495 9.62625C13.5908 10.8787 13.908 11.625 14.9108 11.625H16.7565C17.3415 11.625 17.646 11.3827 17.7983 11.1795C17.9453 10.983 18.0893 10.638 17.9318 10.101C17.52 8.808 15.1185 6.57525 14.9693 6.33975C14.9918 6.29625 15.0278 6.2385 15.0465 6.2085H15.045C15.519 5.58225 17.328 2.87175 17.5943 1.78725C17.595 1.78575 17.5958 1.7835 17.5958 1.78125C17.7398 1.28625 17.6078 0.96525 17.4713 0.78375C17.2658 0.51225 16.9388 0.375 16.497 0.375H14.6513C14.0333 0.375 13.5645 0.68625 13.3275 1.254C12.9308 2.26275 11.8163 4.33725 10.9808 5.0715C10.9553 4.03125 10.9725 3.237 10.986 2.64675C11.013 1.4955 11.1 0.375 9.90525 0.375H7.00425C6.25575 0.375 5.5395 1.1925 6.315 2.163C6.993 3.0135 6.55875 3.4875 6.705 5.847C6.135 5.23575 5.121 3.585 4.404 1.47525C4.203 0.9045 3.8985 0.37575 3.04125 0.37575H1.1955C0.447 0.37575 0 0.78375 0 1.467C0 3.0015 3.39675 11.625 9.10875 11.625ZM3.04125 1.50075C3.204 1.50075 3.2205 1.50075 3.34125 1.8435C4.0755 4.00575 5.7225 7.20525 6.9255 7.20525C7.82925 7.20525 7.82925 6.279 7.82925 5.93025L7.8285 3.15375C7.779 2.235 7.4445 1.7775 7.22475 1.5L9.85575 1.503C9.85725 1.51575 9.84075 4.57425 9.86325 5.31525C9.86325 6.3675 10.6988 6.9705 12.003 5.6505C13.3793 4.09725 14.331 1.77525 14.3693 1.68075C14.4255 1.54575 14.4743 1.5 14.6513 1.5H16.497H16.5045C16.5037 1.50225 16.5038 1.5045 16.503 1.50675C16.3343 2.29425 14.6685 4.80375 14.1113 5.583C14.1023 5.595 14.094 5.60775 14.0858 5.6205C13.8405 6.021 13.641 6.4635 14.1195 7.086H14.1203C14.1638 7.1385 14.277 7.2615 14.442 7.4325C14.4469 7.43757 14.4519 7.44277 14.4571 7.44808C14.9886 7.9966 16.716 9.7794 16.8705 10.4925C16.767 10.509 16.6545 10.497 14.9108 10.5007C14.5395 10.5007 14.2493 9.94575 13.1415 8.82825C12.1455 7.85925 11.499 7.46325 10.9103 7.46325C9.76725 7.46325 9.8505 8.391 9.861 9.513C9.86475 10.7295 9.85725 10.3448 9.8655 10.4213C9.79875 10.4475 9.6075 10.5 9.10875 10.5C4.35 10.5 1.251 2.94675 1.13175 1.503C1.173 1.49925 1.74075 1.5015 3.04125 1.50075Z" fill="#273895"/>
<path d="M3.04125 1.50075C3.204 1.50075 3.2205 1.50075 3.34125 1.8435C4.0755 4.00575 5.7225 7.20525 6.9255 7.20525C7.82925 7.20525 7.82925 6.279 7.82925 5.93025L7.8285 3.15375C7.779 2.235 7.4445 1.7775 7.22475 1.5L9.85575 1.503C9.85725 1.51575 9.84075 4.57425 9.86325 5.31525C9.86325 6.3675 10.6988 6.9705 12.003 5.6505C13.3793 4.09725 14.331 1.77525 14.3693 1.68075C14.4255 1.54575 14.4743 1.5 14.6513 1.5H16.497H16.5045C16.5037 1.50225 16.5038 1.5045 16.503 1.50675C16.3343 2.29425 14.6685 4.80375 14.1113 5.583C14.1023 5.595 14.094 5.60775 14.0858 5.6205C13.8405 6.021 13.641 6.4635 14.1195 7.086H14.1203C14.1638 7.1385 14.277 7.2615 14.442 7.4325L14.4571 7.44808C14.9886 7.9966 16.716 9.7794 16.8705 10.4925C16.767 10.509 16.6545 10.497 14.9108 10.5007C14.5395 10.5007 14.2493 9.94575 13.1415 8.82825C12.1455 7.85925 11.499 7.46325 10.9103 7.46325C9.76725 7.46325 9.8505 8.391 9.861 9.513C9.86475 10.7295 9.85725 10.3448 9.8655 10.4213C9.79875 10.4475 9.6075 10.5 9.10875 10.5C4.35 10.5 1.251 2.94675 1.13175 1.503C1.173 1.49925 1.74075 1.5015 3.04125 1.50075Z" fill="#273895"/>
</svg>

<svg width="18" height="12" fill="none" xmlns="http://www.w3.org/2000/svg"><path d="M9.109 11.625c2.604 0 1.675-1.649 1.876-2.123-.003-.354-.006-.694.006-.901.165.046.555.244 1.359 1.025 1.24 1.253 1.558 1.999 2.56 1.999h1.846c.585 0 .89-.242 1.042-.445.147-.197.291-.542.134-1.079-.412-1.293-2.813-3.526-2.963-3.761a2.07 2.07 0 01.078-.131h-.002c.474-.627 2.283-3.337 2.55-4.422v-.006c.145-.495.013-.816-.124-.997-.205-.272-.532-.409-.974-.409h-1.846c-.618 0-1.086.311-1.323.879-.397 1.009-1.512 3.083-2.347 3.818a48.096 48.096 0 01.005-2.425c.027-1.151.114-2.272-1.08-2.272H7.003c-.748 0-1.464.817-.689 1.788.678.85.244 1.325.39 3.684-.57-.611-1.584-2.262-2.301-4.372-.201-.57-.506-1.1-1.363-1.1H1.196C.447.376 0 .785 0 1.468c0 1.534 3.397 10.158 9.109 10.158zM3.04 1.501c.163 0 .18 0 .3.343.734 2.162 2.381 5.361 3.585 5.361.903 0 .903-.926.903-1.275V3.154c-.05-.919-.385-1.376-.604-1.654l2.63.003c.002.013-.014 3.071.008 3.812 0 1.052.836 1.655 2.14.335 1.376-1.553 2.328-3.875 2.366-3.97.056-.134.105-.18.282-.18h1.854l-.002.007c-.169.787-1.835 3.297-2.392 4.076a.633.633 0 00-.025.037c-.245.401-.445.843.034 1.466.044.052.157.175.322.346l.015.016c.532.549 2.259 2.331 2.413 3.044-.103.017-.216.005-1.96.009-.37 0-.66-.555-1.768-1.673-.996-.969-1.643-1.365-2.232-1.365-1.143 0-1.06.928-1.049 2.05.004 1.216-.004.832.005.908-.067.027-.258.079-.757.079-4.759 0-7.858-7.553-7.977-8.997.041-.004.609-.001 1.91-.002z" fill="#273895"/><path d="M3.041 1.5c.163 0 .18 0 .3.343.734 2.163 2.381 5.362 3.585 5.362.903 0 .903-.926.903-1.275V3.154c-.05-.919-.385-1.376-.604-1.654l2.63.003c.002.013-.014 3.071.008 3.812 0 1.052.836 1.655 2.14.335 1.376-1.553 2.328-3.875 2.366-3.97.056-.134.105-.18.282-.18h1.854l-.002.007c-.169.787-1.835 3.297-2.392 4.076a.633.633 0 00-.025.037c-.245.401-.445.843.034 1.466.044.052.157.175.322.346l.015.016c.532.549 2.259 2.331 2.413 3.044-.103.017-.216.005-1.96.009-.37 0-.66-.555-1.768-1.673-.996-.969-1.643-1.365-2.232-1.365-1.143 0-1.06.928-1.049 2.05.004 1.216-.004.832.005.908-.067.027-.258.079-.757.079-4.759 0-7.858-7.553-7.977-8.997.041-.004.609-.001 1.91-.002z" fill="#273895"/></svg>
